T: Black Widow, The
M: 4/4
L: 1/8
K: Gdor
Q:1/2=120 BA |: "Gm"GAGF G2 D2 | F (3DDD C D2 G,2 | A,B,FD E2 C2 | B,2 A,2 "F"G,2 BA |
"Gm"GAGF G2 D2 | F (3DDD C D2 G,2 | B,CDA, B,2 A,B, |1 "F"D2 G,2 G,2 BA :|2 "D#"D2 ^F2 G2 A2 ||
|: "F"B c2 c3 AB | "^"cdcB (3AAA A2 | "C"FE F2 G3 D | GAcB AG F2 |
"^""Cm"B c2 c3 AB | cdcB (3AAA A2 |1 "Gm"GDFC E2 B,2 | B,2 C2 DGAB/B/ :|
[2 "Gm"B,CDA, B,2 A,B, | D2 G,2 G,4 |]
